X: 36630
T: Shandon Bells
R: jig
M: 6/8
K: Dmajor
dB|:AFD DFA|ded cBA|BGE EFA|B2A Bcd|
AFD DFA|ded cBA|Bcd ecA|1 d3 dcB:|2 d3 d2e||
|:fdd dcd|faa afd|cAA eAA|cAc efg|
fdd dcd|faa afd|Bcd ecA|d3 d2e:|

